X:2716
L:1/8
M:3/4
K:Amin
 A4 AB | c3 BA^G | A2 B2 ^GB | A4 c2 | e4 e^f | g3 ^fe^d | e2 ^f2 ^df | e6 :: c3 dcB | c2 e2 g^f | 
 d3 ed^c | d2 =f2 ag | e3 dcB | c3 BA^G | A2 B2 ^GB | A6 :|

